build/system/StarOutline.svg

<svg xmlns="http://www.w3.org/2000/svg" fill="none" viewBox="0 0 24 24" focusable="false"><path d="M0 0H24V24H0z"/><path fill="#74767B" d="M11.9999 4.96998L13.9199 8.86998L14.2199 9.47998L14.8999 9.57998L19.1999 10.21L16.0899 13.25L15.5999 13.73L15.7199 14.4L16.4599 18.69L12.6099 16.67L11.9999 16.34L11.3999 16.66L7.54992 18.68L8.28992 14.39L8.40992 13.72L7.91992 13.24L4.80992 10.2L9.10992 9.56998L9.78992 9.46998L10.0899 8.85998L11.9999 4.96998ZM11.9999 2.91998C11.7499 2.91998 11.4999 3.04998 11.3699 3.30998L8.90992 8.29998L3.39992 9.09998C2.82992 9.17998 2.59992 9.88998 3.00992 10.29L6.99992 14.17L6.05992 19.65C5.97992 20.1 6.33992 20.47 6.74992 20.47C6.85992 20.47 6.96992 20.44 7.07992 20.39L11.9999 17.81L16.9199 20.4C17.0299 20.46 17.1399 20.48 17.2499 20.48C17.6599 20.48 18.0199 20.11 17.9399 19.66L16.9999 14.17L20.9799 10.29C21.3999 9.88998 21.1699 9.17998 20.5899 9.09998L15.0799 8.29998L12.6199 3.30998C12.4999 3.04998 12.2499 2.91998 11.9999 2.91998Z"/></svg>

<svg xmlns="http://www.w3.org/2000/svg" fill="none" viewBox="0 0 24 24" focusable="false"><path fill="#74767B" d="m12 4.96 1.91 3.91.3.6.68.1 4.3.64-3.11 3.04-.48.48.11.67.74 4.29-3.85-2.02-.6-.33-.61.32-3.85 2.02.75-4.29.12-.67-.5-.48-3.1-3.04 4.29-.64.69-.1.29-.61zm0-2.05c-.25 0-.5.13-.63.4L8.91 8.29l-5.52.8c-.56.08-.79.79-.39 1.2l4 3.88-.94 5.48c-.09.45.27.81.69.81.1 0 .21-.02.33-.07L12 17.81l4.91 2.59c.11.05.23.08.34.08.41 0 .77-.37.68-.82L17 14.17l3.98-3.88a.707.707 0 0 0-.4-1.2l-5.5-.8-2.46-4.98a.67.67 0 0 0-.62-.4"/></svg>
